lib/healthicons/icons/solid/people/mental_disorders.svg

<svg fill="none" height="48" viewBox="0 0 48 48" width="48" xmlns="http://www.w3.org/2000/svg"><path clip-rule="evenodd" d="m38.8848 20.2587c-.0258 1.7476-.0486 3.2867.8298 5.1071 0 0 2.5967 2.3361 2.2543 4.2103-.3424 1.8743-3.7239 2.3904-3.7239 2.3904 0 7.5728-7.2315 7.0907-10.8409 6.3785-.073-.0144-.1446-.0289-.2145-.0435-1.0801-.2243-1.7855-.4557-1.7855-.4557v1.4231s-.0752.2384-.3071.574c-.0616.0892-.1343.1852-.2196.2854-.6772.7958-2.1485 1.8569-5.1804 1.8569-2.2842.1809-6.1939-1.3143-7.2303-3.4226v-6.4482c-3.65249-2.7299-6.4667-6.4075-6.4667-11.1747 0-3.9622 1.65352-7.7622 4.5968-10.5639 2.9433-2.80178 6.9352-4.37579 11.0977-4.37579 3.1786-.00343 6.3195.6548 9.2026 1.92859 2.2722.91081 4.2615 2.3603 5.7785 4.2103 1.3852 1.9434 2.153 4.2256 2.2115 6.5735.0126.5395.005 1.0514-.0023 1.5463zm-11.4353 1.6216c-.1559.1744-.2372.2654-.7266.2654-.7729 0-1.5279-.2269-2.1663-.651-.4482.4622-.9978.8203-1.6077 1.0474-.0777.0373-.1491.0769-.2154.119-.3459.2194-.5506.5028-.7601.8368-.0356.0569-.0714.1152-.1081.1749-.0524.0854-.1068.1741-.1648.265-.3829.5999-.5854 1.2923-.5845 1.9985v3.9775h-4.116c-.1036-.8521-.2982-1.6708-.7698-2.3958-.4715-.7251-1.1041-1.3381-1.8512-1.7938-.6484-.2713-1.2082-.7099-1.6189-1.2684-.4106-.5585-.6565-1.2157-.7109-1.9004-.6749-.6953-1.0504-1.6158-1.0491-2.5722-.0052-.8246.2729-1.6273.7902-2.2804-.0952-.3232-.1411-.6583-.1362-.9944-.0013-.804.2628-1.5871.7533-2.234l1.9716-1.3591c.3025-.6618.7953-1.2243 1.4191-1.6196.6237-.3952 1.3517-.6063 2.096-.6078.3075.0018.6137.0374.9129.106.6332-.5741 1.4465-.9242 2.309-.9939l4.189.2839c.9244.2224 1.7325.7677 2.2709 1.5321h.2725l2.4202.8242c.6865.5354 1.1642 1.2832 1.3538 2.1192.8305.3509 1.5121.9687 1.9305 1.7502.4184.7814.5483 1.679.3679 2.5425-.1803.8634-.6599 1.6405-1.3586 2.201l-2.4794.878c-.7805.0088-1.5454-.2131-2.1936-.6364-.2341.1555-.3494.2846-.4397.3856zm6.5505 3.6197c0 .8284-.6716 1.5-1.5 1.5s-1.5-.6716-1.5-1.5.6716-1.5 1.5-1.5 1.5.6716 1.5 1.5zm-13 6.5v2h-4v-2zm-4 4v2h4v-2z" fill="#333" fill-rule="evenodd"/></svg>

<svg width="48" height="48" viewBox="0 0 48 48" fill="none" xmlns="http://www.w3.org/2000/svg">
<path fill-rule="evenodd" clip-rule="evenodd" d="M38.8848 20.2587C38.859 22.0063 38.8362 23.5454 39.7146 25.3658C39.7146 25.3658 42.3113 27.7019 41.9689 29.5761C41.6265 31.4504 38.245 31.9665 38.245 31.9665C38.245 39.5393 31.0135 39.0572 27.4041 38.345C27.3311 38.3306 27.2595 38.3161 27.1896 38.3015C26.1095 38.0772 25.4041 37.8458 25.4041 37.8458V39.2689C25.4041 39.2689 25.3289 39.5073 25.097 39.8429C25.0354 39.9321 24.9627 40.0281 24.8774 40.1283C24.2002 40.9241 22.7289 41.9852 19.697 41.9852C17.4128 42.1661 13.5031 40.6709 12.4667 38.5626V32.1144C8.81421 29.3845 6 25.7069 6 20.9397C6 16.9775 7.65352 13.1775 10.5968 10.3758C13.5401 7.57402 17.532 6.00001 21.6945 6.00001C24.8731 5.99658 28.014 6.65481 30.8971 7.9286C33.1693 8.83941 35.1586 10.2889 36.6756 12.1389C38.0608 14.0823 38.8286 16.3645 38.8871 18.7124C38.8997 19.2519 38.8921 19.7638 38.8848 20.2587ZM27.4495 21.8803C27.2936 22.0547 27.2123 22.1457 26.7229 22.1457C25.95 22.1457 25.195 21.9188 24.5566 21.4947C24.1084 21.9569 23.5588 22.315 22.9489 22.5421C22.8712 22.5794 22.7998 22.619 22.7335 22.6611C22.3876 22.8805 22.1829 23.1639 21.9734 23.4979C21.9378 23.5548 21.902 23.6131 21.8653 23.6728C21.8129 23.7582 21.7585 23.8469 21.7005 23.9378C21.3176 24.5377 21.1151 25.2301 21.116 25.9363V29.9138H17C16.8964 29.0617 16.7018 28.243 16.2302 27.518C15.7587 26.7929 15.1261 26.1799 14.379 25.7242C13.7306 25.4529 13.1708 25.0143 12.7601 24.4558C12.3495 23.8973 12.1036 23.2401 12.0492 22.5554C11.3743 21.8601 10.9988 20.9396 11.0001 19.9832C10.9949 19.1586 11.273 18.3559 11.7903 17.7028C11.6951 17.3796 11.6492 17.0445 11.6541 16.7084C11.6528 15.9044 11.9169 15.1213 12.4074 14.4744L14.379 13.1153C14.6815 12.4535 15.1743 11.891 15.7981 11.4957C16.4218 11.1005 17.1498 10.8894 17.8941 10.8879C18.2016 10.8897 18.5078 10.9253 18.807 10.9939C19.4402 10.4198 20.2535 10.0697 21.116 10L25.305 10.2839C26.2294 10.5063 27.0375 11.0516 27.5759 11.816H27.8484L30.2686 12.6402C30.9551 13.1756 31.4328 13.9234 31.6224 14.7594C32.4529 15.1103 33.1345 15.7281 33.5529 16.5096C33.9713 17.291 34.1012 18.1886 33.9208 19.0521C33.7405 19.9155 33.2609 20.6926 32.5622 21.2531L30.0828 22.1311C29.3023 22.1399 28.5374 21.918 27.8892 21.4947C27.6551 21.6502 27.5398 21.7793 27.4495 21.8803ZM34 25.5C34 26.3284 33.3284 27 32.5 27C31.6716 27 31 26.3284 31 25.5C31 24.6716 31.6716 24 32.5 24C33.3284 24 34 24.6716 34 25.5ZM21 32V34H17V32H21ZM17 36V38H21V36H17Z" fill="#333333"/>
</svg>
